X: 900
T: Alice's
R: jig
M: 6/8
K: Dminor
D2E|:FED A2A|ABA AGF|EDC G2G|GAG GFE|
FED A2A|ABA AGF|EFG GFE|1 FGE D2E:|2 FGE D2A||
d^cd A2A|d^cd A2=B|c=Bc GED|CEG BAG|
FEF GFG|A^GA BAG|AGF EAG|1 FDD D2^c:|2 FDD D2||

